X: 1
T: O Be Glad All Nations on Earth
C: Words: Brian L. Penney, 2009. 
C: Music: 'Gwalia' Welsh hymn tune, traditional. Setting: David Evans, "Revised Church Hymnary", 1927. 
S: David Evans, (1874-1948) Setting from the Revised Church Hymnary, 1927, Oxford University Press
C: copyright: Words: Copyright 2009, Brian L. Penney. These lyrics may be freely reproduced or published for Christian 
C: worship, provided they are not altered, and this notice is on each copy. All other rights reserved.
C: Music and Setting: public domain per CCEH.  This score is a part of the Open Hymnal Project, 2009 Revision.
S: Setting close, but slightly different from "Hymns of the Kingdom" 1923 Hymn 143
M: 3/2 % time signature
L: 1/4 % default length
%%staves (S1V1 S1V2) | (S2V1 S2V2) 
V: S1V1 clef=treble 
%%MIDI beat 127 125 110 1
V: S1V2 
%%MIDI beat 127 125 110 1
V: S2V1 clef=bass 
%%MIDI beat 127 125 110 1
V: S2V2 
%%MIDI beat 127 125 110 1
K: F % key signature
%
%%MIDI program 1 0 % Piano 1
%%MIDI program 2 0 % Piano 1
%%MIDI program 3 0 % Piano 1
%%MIDI program 4 0 % Piano 1
%
% 1
[V: S1V1] [Q:1/4=230] A4 B2 |(3::2(c2B  A2) G2 | F4 G2 |(3::2(A2G)  A4 | (B2 A2) G2 |(3::2(c2B  A2) G2 | F4 E2 | F6 |
w: 1.~O be glad, * * all na- tions on * Earth, Come * let Je- * * sus' Name be praised; 
w: 2.~Great and mar- * * vel- ous are Your * works, Just * and true * * are all Your ways; 
w: 3.~When shall Heav'n * * and Earth to- geth- * er, Walk * be- fore * * the Lamb, its Light? 
w: 4.~Lo, that day * * shall come with glo- * ry, When * Christ comes * * with trum- pet sound; 
[V: S1V2]  F4 F2 | (G2 F2) E2 | D4 E2 | (3::2(F2E)  F4 | F4 F2 | (F3 E) D2 | C4 C2 | C6 |
[V: S2V1]  C4 B,2 | (G,2 C2) B,2 | A,4 C2 | C2 C4 | D4 D2 | (C2 F,2) B,2 | (A,2 G,2) (C B,) | A,6 |
[V: S2V2]  F,4 D,2 | (E,2 F,2) C,2 | D,4 C,2 | F,2 F,4 | B,,4 B,,2 | (A,,2 D,2) B,,2 | C,4 C,2 | F,6 |
% 9
[V: S1V1]  A4 B2 |(3::2(c2B  A2) G2 | F4 G2 | (3::2(A2G)  A4 | (B2 A2) G2 |(3::2(c2B  A2) G2 | F4 E2 | F6 |
w: He is crowned, * * the King of glo- * ry, At * God's right * * hand He is raised. 
w: All the na- * * tions bow in wor- * ship, King * of kings, * * Your Name they praise. 
w: When shall all * * the saints be ga- * thered, and * that Day * * shall end the night? 
w: Then the saints * * will cease their groan- * ing, Nev- * er more * * by death's chains bound. 
[V: S1V2]  F4 F2 | (G2 F2) E2 | D4 E2 | (3::2(F2E)  F4 | F4 F2 | (F3 E) D2 | C4 C2 | C6 |
[V: S2V1]  C4 B,2 | (G,2 C2) B,2 | A,4 C2 | C2 C4 | D4 D2 | (C2 F,2) B,2 | (A,2 G,2) (C B,) | A,6 |
[V: S2V2]  F,4 D,2 | (E,2 F,2) C,2 | D,4 C,2 | F,2 F,4 | B,,4 B,,2 | (A,,2 D,2) B,,2 | C,4 C,2 | F,6 |
% 17
[V: S1V1]  c4(3::2c2A  | c4(3cd_e  |(3::2(d2c  B2) A2 | A2 G4 | c4(3::2c2A  | c4(3cd_e  |(3::2(d2c  B2) A2 | G6 |
w: An- gels * bow- ing * * down * * be- fore Him, Sing- ing * with the * * heav'n- * * ly throng; 
w: An- gels * bow- ing * * down * * be- fore Him, Sing- ing * with the * * heav'n- * * ly throng; 
w: An- gels * bow- ing * * down * * be- fore Him, Sing- ing * with the * * heav'n- * * ly throng; 
w: Let us * all bow * * down * * be- fore Him, Sing, O * sing th'e- * * ter- * * nal song;
[V: S1V2]  F4 F2 | G4 F2 | F4 F2 | F2 E4 | E4 F2 | G4 F2 | (F3 E) F2 | E6 |
[V: S2V1]  C4(3::2A,2C  | (C3 B,) A,2 |(3::2(B,2C  D2) D2 | C2 C4 | C4(3::2A,2C  | (C3 B,) A,2 | B,4 C2 | C6 |
[V: S2V2]  A,4 F,2 | E,4 F,2 | B,,4 =B,,2 | C,2 C,4 | A,4 F,2 | C,4 F,2 |(3::2B,2A,  G,2 F,2 | C,6 |
% 25
[V: S1V1]  A4 B2 |(3::2(c2B  A2) G2 | F4 G2 | (3::2(A2G)  A4 | !sintro!(B2 A2) G2 |(3::2(c2B  A2) G2 | F4 E2 | F6 !eintro!|]
w: El- ders cast- * * ing crowns be- fore * Him, Sing- * ing an * * e- ter- nal song. 
w: El- ders cast- * * ing crowns be- fore * Him, Sing- * ing an * * e- ter- nal song. 
w: El- ders cast- * * ing crowns be- fore * Him, Sing- * ing an * * e- ter- nal song. 
w: Work in hope * * un- til we meet * Him, And * we join * * the heav'n- ly throng. 
[V: S1V2]  F4 F2 | (G2 F2) E2 | D4 D2 | D2 ^C4 | D4 (D E) | (F3 E) D2 | C4 C2 | C6 |]
[V: S2V1]  C4 B,2 | (G,2 C2) B,2 | A,4 D,2 | F,2 E,4 | (E,2 F,2) G,2 |(3::2(A,2B,  C2) B,2 | (A,2 G,2) (C B,) | A,6 |]
[V: S2V2]  F,4 D,2 | (E,2 F,2) C,2 | D,4 B,,2 | A,,2 A,,4 | (G,,2 A,,2) B,,2 | (A,,2 F,,2) B,,2 | C,4 C,2 | [F,,6F,6] |]
